**kern	**kern	**dynam
*part1	*part1	*part1
*staff2	*staff1	*
*I"Piano	*	*
*clefF4	*clefG2	*
*k[b-e-a-]	*k[b-e-a-]	*
=1	=1	=1
4BB- 4E- 4G	4B- 4e- 4g	.
8BB-L 8E- 8G	8B-L 8e- 8g	.
8BB-J 8E- 8G	8B-J 8e- 8g	.
=	=	=
4BB- 4F 4A-	4B- 4d 4a-	.
8BB-L 8F 8A-	8B-L 8d 8a-	.
8BB-J 8F 8A-	8B-J 8d 8a-	.
=	=	=
4BB- 4E- 4G	4B- 4e- 4g	.
8BB-L 8E- 8G	8B-L 8e- 8g	.
8BB-J 8E- 8G	8B-J 8e- 8g	.
=	=	=
4BB- 4D-X 4En 4G	4B- 4d-X 4en 4g	.
8BB-L 8D- 8E 8G	8B-L 8d- 8e 8g	<
8BB-J 8D- 8E 8G	8B-J 8d- 8e 8g	.
=	=	=
4AA- 4C 4G	4A- 4c 4g	.
8AAnL 8C 8E-X 8F	8AnL 8c 8e-X 8f	.
8AAJ 8C 8E- 8F	8AJ 8c 8e- 8f	.
=	=	=
4BB- 4E- 4G	4B- 4e- 4g	[ >
8BB-L 8D 8F	8B-L 8d 8f	.
8BB-J 8D 8F	8B-J 8d 8f	]
=	=	=
4EE- 4BB- 4E-	4G 4B- 4e-	p
8E-L 8B-	8e-L 8g	.
8E-J 8B-	8e-J 8g	.
=	=	=
*-	*-	*-
!!!system-decoration: {(s1,s2)}
